X:1
T:Ola Lans Polska
T:(SvL Skne nr.1005)
C:Ola Nilsson Lans
S:Svenska Ltar
R:Polska
Z:Patrik Mnsson, 4/7 2008
O:Sjrup, Skne
N: SvL Skne III nr1005
M:3/4
L:1/16
Q:1/4=100
K:G
|: G2GG G2B2 D2G2 | BcBA B2d2 B2d2 | (g3f) (e2d2) c2B2 |
A2a2 agfe dcBA | G2GG G2B2 D2G2 | BcBA B2d2 B2d2 |
(g3f) (e2d2) c2B2 | (Ad)fa a4 g4 :| |: d2dd d2g2 B2d2 | (cdcB) c2e2 A4 |
(cdcB) c2e2 A2c2 | BcBA B2d2 G4 | D2GG G2B2 B2B2 |
D2GG G2B2 B2B2 | (A3B) c2e2 e2d2 | (dcBc) A4 G4 :|
